img/logo.svg

<?xml version="1.0" encoding="UTF-8"?>
<svg width="195px" height="42px" viewBox="0 0 195 42" version="1.1" xmlns="http://www.w3.org/2000/svg" xmlns:xlink="http://www.w3.org/1999/xlink">
    <!-- Generator: Sketch 43.2 (39069) - http://www.bohemiancoding.com/sketch -->
    <title>logo</title>
    <desc>Created with Sketch.</desc>
    <defs></defs>
    <g id="Page-1" stroke="none" stroke-width="1" fill="none" fill-rule="evenodd">
        <g id="logo" fill="#4B5057">
            <path d="M53.792,36 L53.792,22.512 C54.08,19.152 56.096,17.52 58.16,17.52 C60.416,17.52 62.48,19.2 62.48,22.464 L62.48,36 L69.248,36 L69.248,22.08 C69.248,15.792 65.6,12 60.752,12 C57.536,12 55.184,13.584 53.648,15.792 C53.744,15.168 53.792,14.544 53.792,14.16 L53.792,0 L47.072,0 L47.072,36 L53.792,36 Z M97.376,12.576 L90.656,12.576 L90.656,26.304 C90.512,29.472 88.304,31.056 86.288,31.056 C84.032,31.056 81.968,29.376 81.968,26.112 L81.968,12.576 L75.2,12.576 L75.2,26.496 C75.2,32.784 78.848,36.576 83.696,36.576 C86.864,36.576 89.264,34.992 90.8,32.784 C90.704,33.456 90.656,34.032 90.656,34.416 L90.656,36 L97.376,36 L97.376,12.576 Z M125.84,36 L119.36,36 L119.36,32.928 C117.488,35.136 114.992,36.48 112.256,36.48 C105.68,36.48 102.128,30.528 102.128,24.192 C102.128,17.952 105.824,12.048 112.304,12.048 C114.896,12.048 117.296,13.008 119.12,14.928 L119.12,0 L125.84,0 L125.84,36 Z M114.032,30.528 C117.104,30.528 119.216,27.456 119.216,24.24 C119.216,20.64 117.152,18.048 114.032,18.048 C110.528,18.048 108.8,20.832 108.8,24.288 C108.8,27.696 110.576,30.528 114.032,30.528 Z M154.304,36 L147.824,36 L147.824,32.928 C145.952,35.136 143.456,36.48 140.72,36.48 C134.144,36.48 130.592,30.528 130.592,24.192 C130.592,17.952 134.288,12.048 140.768,12.048 C143.36,12.048 145.76,13.008 147.584,14.928 L147.584,0 L154.304,0 L154.304,36 Z M142.496,30.528 C145.568,30.528 147.68,27.456 147.68,24.24 C147.68,20.64 145.616,18.048 142.496,18.048 C138.992,18.048 137.264,20.832 137.264,24.288 C137.264,27.696 139.04,30.528 142.496,30.528 Z M167.264,36 L167.264,0 L160.448,0 L160.448,36 L167.264,36 Z M194.72,25.728 L178.736,25.728 C179.216,29.616 181.616,31.056 184.256,31.056 C186.848,31.056 188.624,29.856 189.776,28.176 L194.24,31.392 C191.744,34.752 189.2,36.48 183.872,36.48 C177.008,36.48 171.968,31.44 171.968,24.24 C171.968,17.568 176.48,12.048 183.68,12.048 C191.6,12.048 194.72,17.712 194.72,24.912 L194.72,25.728 Z M183.632,17.52 C181.472,17.52 179.6,18.864 178.928,21.6 L188.192,21.6 C187.76,18.912 185.696,17.52 183.632,17.52 Z" id="huddle"></path>
            <g id="hand" transform="translate(0.000000, 6.000000)" fill-rule="nonzero">
                <path d="M30.9675556,31.8985 C30.8598889,32.2291 30.603,32.5958 30.1817778,32.7193 C29.8776667,32.8086 19.8155556,35.7403 19.5057778,35.822 C18.6198889,36.0595 18.0041111,35.8847 17.5998889,35.5256 C16.9841111,34.9803 9.86866667,30.1106 0.892666667,29.6508 C-0.0668888889,29.6033 0.403444444,25.9439 3.14611111,25.9439 C5.02555556,25.9439 10.5203333,27.3176 11.1833333,26.6488 C11.6952222,26.132 11.9275556,23.0787 9.79122222,17.7511 L9.79122222,17.7511 L5.494,7.0408 C5.086,6.0243 5.57711111,4.8691 6.58577778,4.4587 C7.59633333,4.0483 8.74855556,4.5404 9.15277778,5.5569 C9.15277778,5.5569 12.5357778,13.9891 12.9041111,14.903 C13.2686667,15.815 13.7182222,16.1608 14.2074444,15.9708 C14.6437778,15.8036 14.7344444,15.511 14.47,14.6237 L10.6053333,3.1705 C10.254,2.1331 10.8055556,1.0083 11.8368889,0.6549 C12.8701111,0.2996 13.9921111,0.8563 14.3396667,1.8937 L18.0154444,12.7845 C18.3403333,13.7421 18.6841111,14.2437 19.2281111,14.0119 C19.5548889,13.8732 19.5322222,13.3697 19.4453333,12.9308 L16.8651111,2.5359 C16.6006667,1.47 17.2447778,0.3946 18.3025556,0.1286 C19.3603333,-0.1355 20.4275556,0.5086 20.6938889,1.5745 L23.0738889,11.1543 C23.4214444,12.5622 23.7406667,13.0695 24.2941111,12.9308 C24.8588889,12.7921 24.8324444,12.3247 24.755,11.939 C24.5755556,11.0365 23.1078889,3.7158 23.1078889,3.7158 C22.9133333,2.7373 23.5423333,1.7873 24.5132222,1.5916 C25.4822222,1.3959 26.4285556,2.0286 26.6212222,3.0033 L28.4118889,11.9542 L28.4137778,11.9561 C28.4137778,11.9561 28.4137778,11.9561 28.4137778,11.958 L29.4866667,17.3255 C29.7208889,18.3382 29.9891111,19.292 30.3366667,20.2268 C32.3861111,25.7159 31.317,30.7984 30.9675556,31.8985 Z" id="Shape"></path>
            </g>
        </g>
    </g>
</svg>

<svg width="195" height="42" xmlns="http://www.w3.org/2000/svg"><g fill="#4B5057" fill-rule="evenodd"><path d="M53.792 36V22.512c.288-3.36 2.304-4.992 4.368-4.992 2.256 0 4.32 1.68 4.32 4.944V36h6.768V22.08c0-6.288-3.648-10.08-8.496-10.08-3.216 0-5.568 1.584-7.104 3.792.096-.624.144-1.248.144-1.632V0h-6.72v36h6.72zm43.584-23.424h-6.72v13.728c-.144 3.168-2.352 4.752-4.368 4.752-2.256 0-4.32-1.68-4.32-4.944V12.576H75.2v13.92c0 6.288 3.648 10.08 8.496 10.08 3.168 0 5.568-1.584 7.104-3.792a12.506 12.506 0 00-.144 1.632V36h6.72V12.576zM125.84 36h-6.48v-3.072c-1.872 2.208-4.368 3.552-7.104 3.552-6.576 0-10.128-5.952-10.128-12.288 0-6.24 3.696-12.144 10.176-12.144 2.592 0 4.992.96 6.816 2.88V0h6.72v36zm-11.808-5.472c3.072 0 5.184-3.072 5.184-6.288 0-3.6-2.064-6.192-5.184-6.192-3.504 0-5.232 2.784-5.232 6.24 0 3.408 1.776 6.24 5.232 6.24zM154.304 36h-6.48v-3.072c-1.872 2.208-4.368 3.552-7.104 3.552-6.576 0-10.128-5.952-10.128-12.288 0-6.24 3.696-12.144 10.176-12.144 2.592 0 4.992.96 6.816 2.88V0h6.72v36zm-11.808-5.472c3.072 0 5.184-3.072 5.184-6.288 0-3.6-2.064-6.192-5.184-6.192-3.504 0-5.232 2.784-5.232 6.24 0 3.408 1.776 6.24 5.232 6.24zM167.264 36V0h-6.816v36h6.816zm27.456-10.272h-15.984c.48 3.888 2.88 5.328 5.52 5.328 2.592 0 4.368-1.2 5.52-2.88l4.464 3.216c-2.496 3.36-5.04 5.088-10.368 5.088-6.864 0-11.904-5.04-11.904-12.24 0-6.672 4.512-12.192 11.712-12.192 7.92 0 11.04 5.664 11.04 12.864v.816zm-11.088-8.208c-2.16 0-4.032 1.344-4.704 4.08h9.264c-.432-2.688-2.496-4.08-4.56-4.08z"/><path d="M30.968 37.898c-.108.331-.365.698-.786.821-.304.09-10.366 3.021-10.676 3.103-.886.237-1.502.063-1.906-.296-.616-.546-7.731-5.415-16.707-5.875-.96-.048-.49-3.707 2.253-3.707 1.88 0 7.374 1.374 8.037.705.512-.517.745-3.57-1.392-8.898l-4.297-10.71a1.99 1.99 0 011.092-2.582 1.967 1.967 0 012.567 1.098s3.383 8.432 3.751 9.346c.365.912.814 1.258 1.303 1.068.437-.167.527-.46.263-1.347L10.605 9.17a1.984 1.984 0 011.232-2.516 1.966 1.966 0 012.503 1.239l3.675 10.89c.325.958.67 1.46 1.213 1.228.327-.139.304-.642.217-1.081l-2.58-10.395a1.985 1.985 0 011.438-2.407 1.972 1.972 0 012.39 1.446l2.38 9.58c.348 1.407.668 1.915 1.221 1.776.565-.139.538-.606.461-.992l-1.647-8.223a1.803 1.803 0 011.405-2.124 1.791 1.791 0 012.108 1.411l1.79 8.951.003.002v.002l1.073 5.368a23.2 23.2 0 00.85 2.9c2.05 5.49.98 10.572.63 11.673z" fill-rule="nonzero"/></g></svg>
